X:0036
T:White Jock.
N:from Daniel Wright in the 1730s
N:Aird actually prints "Iock"
M:6/8
L:1/8
Q:3/8=120
I: :: ::
Z:Jack Campin * www.campin.me.uk * 2009
K:D
d2d fed|dcB AGF|B2B Bcd|A2F DEF|G3 BAG|FGE D3:|
DFA AFA|def e2f|DFA AFA|def edc|
B2d A2d|G2G FGA|B2B Bcd|A2F DEF|G3 BAG|FGE D3:|

